src/cmd/sc_graphicfilterrelief.svg

<svg viewBox="0 0 16 16" xmlns="http://www.w3.org/2000/svg"><path d="m2 2v12h3v-1h-2v-10h10v8h1v-9zm4 4v4h4v-4zm1 1h2v2h-2z" fill="#b3b3b3"/><path d="m3 3v10h2v-1h-1v-8h8v7h1v-8zm4 4v2h2v-2z" fill="#232629"/><path d="m7 12a1 .99998522 0 0 0 -1 1 1 .99998522 0 0 0 1 1 1 .99998522 0 0 0 1-1 1 .99998522 0 0 0 -1-1zm3 0a1 .99998522 0 0 0 -1 1 1 .99998522 0 0 0 1 1 1 .99998522 0 0 0 1-1 1 .99998522 0 0 0 -1-1zm3 0a1.000002 1 0 0 0 -1 1 1.000002 1 0 0 0 1 1 1.000002 1 0 0 0 1-1 1.000002 1 0 0 0 -1-1z" fill="#e95420"/></svg>

<?xml version="1.0" encoding="UTF-8" standalone="no"?>
<svg
   xmlns:dc="http://purl.org/dc/elements/1.1/"
   xmlns:cc="http://creativecommons.org/ns#"
   xmlns:rdf="http://www.w3.org/1999/02/22-rdf-syntax-ns#"
   xmlns:svg="http://www.w3.org/2000/svg"
   xmlns="http://www.w3.org/2000/svg"
   xmlns:sodipodi="http://sodipodi.sourceforge.net/DTD/sodipodi-0.dtd"
   xmlns:inkscape="http://www.inkscape.org/namespaces/inkscape"
   viewBox="0 0 16 16"
   version="1.1"
   id="svg8"
   sodipodi:docname="sc_graphicfilterrelief.svg"
   inkscape:version="0.92.4 (5da689c313, 2019-01-14)">
  <metadata
     id="metadata14">
    <rdf:RDF>
      <cc:Work
         rdf:about="">
        <dc:format>image/svg+xml</dc:format>
        <dc:type
           rdf:resource="http://purl.org/dc/dcmitype/StillImage" />
      </cc:Work>
    </rdf:RDF>
  </metadata>
  <defs
     id="defs12" />
  <sodipodi:namedview
     pagecolor="#ffffff"
     bordercolor="#666666"
     borderopacity="1"
     objecttolerance="10"
     gridtolerance="10"
     guidetolerance="10"
     inkscape:pageopacity="0"
     inkscape:pageshadow="2"
     inkscape:window-width="1920"
     inkscape:window-height="1011"
     id="namedview10"
     showgrid="true"
     inkscape:zoom="59"
     inkscape:cx="7.3286118"
     inkscape:cy="5.7981278"
     inkscape:window-x="0"
     inkscape:window-y="32"
     inkscape:window-maximized="1"
     inkscape:current-layer="svg8">
    <inkscape:grid
       type="xygrid"
       id="grid821" />
  </sodipodi:namedview>
  <path
     d="M 14,11 V 2 H 2 v 12 h 3 9 z M 5,13 H 3 V 3 h 10 v 8 2 z M 6,6 v 4 h 4 V 6 Z M 7,7 H 9 V 9 H 7 Z"
     id="path2"
     inkscape:connector-curvature="0"
     style="fill:#b3b3b3"
     sodipodi:nodetypes="cccccccccccccccccccccccc" />
  <path
     d="M 5,12 H 4 V 4 h 8 v 7 1 z m 8,-1 V 3 H 3 v 10 h 2 8 z M 7,7 V 9 H 9 V 7 Z"
     id="path4"
     inkscape:connector-curvature="0"
     style="fill:#232629"
     sodipodi:nodetypes="ccccccccccccccccccc" />
</svg>
